images/types-type-1-1.svg

<svg width="23" height="15" viewBox="0 0 23 15" fill="none" xmlns="http://www.w3.org/2000/svg">
<g clip-path="url(#clip0_0_170)">
<path d="M1.19397 6.10964C1.35616 6.11123 1.51716 6.20679 1.56554 6.39674L2.35587 9.49579C2.37133 9.55647 2.37926 9.61872 2.37926 9.68098L3.96706 7.69823L3.17237 4.92236L1.19397 6.10964Z" fill="#D79B19"/>
<path d="M20.6207 9.681H2.37927L3.96707 7.69824H19.036L20.6207 9.681Z" fill="#B37417"/>
<path d="M19.0361 7.69806L19.8276 4.92219V1.84892C19.8276 0.918212 19.0729 0.163574 18.1422 0.163574H13.1853C12.2546 0.163574 11.5 0.918212 11.5 1.84892V7.69806H19.0361Z" fill="#E5AC20"/>
<path d="M11.5015 7.69806V1.84892C11.5015 0.918212 10.7469 0.163574 9.81619 0.163574H4.85929C3.92859 0.163574 3.17395 0.918212 3.17395 1.84892V4.92219L3.96705 7.69806H11.5015Z" fill="#F6C020"/>
<path d="M21.8059 6.10964C21.6437 6.11123 21.4827 6.20679 21.4344 6.39674L20.644 9.49579C20.6286 9.55647 20.6206 9.61872 20.6206 9.68098L19.036 7.69823L19.8275 4.92236L21.8059 6.10964Z" fill="#D79B19"/>
<path d="M2.77582 14.8362H2.37927V13.25H4.36203L2.77582 14.8362Z" fill="#774836"/>
<path d="M20.2241 14.8362H20.6207V13.25H18.6379L20.2241 14.8362Z" fill="#774836"/>
<path d="M2.35596 9.49583L1.56563 6.39678C1.46768 6.01292 0.911718 6.01292 0.81377 6.39678L0.0234424 9.49583C-0.00748862 9.61758 -0.00748862 9.74487 0.0234424 9.86621L0.81377 12.9653C0.864925 13.1655 1.0406 13.2587 1.21111 13.25H2.37936V9.68102C2.37936 9.61877 2.37143 9.55651 2.35596 9.49583Z" fill="#FFC83E"/>
<path d="M22.9766 9.49583L22.1863 6.39678C22.0884 6.01292 21.5324 6.01292 21.4345 6.39678L20.6441 9.49583C20.6287 9.55651 20.6207 9.61877 20.6207 9.68102V13.25H21.789C21.9595 13.2587 22.1352 13.1655 22.1863 12.9653L22.9766 9.86621C23.008 9.74447 23.008 9.61758 22.9766 9.49583Z" fill="#FFC83E"/>
<path d="M20.6207 9.68115H2.37927V13.2501H20.6207V9.68115Z" fill="#F5BE26"/>
</g>
<defs>
<clipPath id="clip0_0_170">
<rect width="23.0001" height="15" fill="white"/>
</clipPath>
</defs>
</svg>

<svg width="23" height="15" fill="none" xmlns="http://www.w3.org/2000/svg"><g clip-path="url(#clip0_0_170)"><path d="M1.194 6.11a.377.377 0 01.372.287l.79 3.099a.75.75 0 01.023.185l1.588-1.983-.795-2.776L1.194 6.11z" fill="#D79B19"/><path d="M20.62 9.681H2.38l1.587-1.983h15.069l1.585 1.983z" fill="#B37417"/><path d="M19.036 7.698l.792-2.776V1.85c0-.93-.755-1.685-1.686-1.685h-4.957c-.93 0-1.685.754-1.685 1.685V7.7h7.536z" fill="#E5AC20"/><path d="M11.502 7.698v-5.85c0-.93-.755-1.684-1.686-1.684H4.86c-.93 0-1.685.754-1.685 1.685v3.073l.793 2.776h7.534z" fill="#F6C020"/><path d="M21.806 6.11a.377.377 0 00-.372.287l-.79 3.099a.753.753 0 00-.023.185l-1.585-1.983.791-2.776 1.979 1.188z" fill="#D79B19"/><path d="M2.776 14.836h-.397V13.25h1.983l-1.586 1.586zm17.448 0h.397V13.25h-1.983l1.586 1.586z" fill="#774836"/><path d="M2.356 9.496l-.79-3.1c-.098-.383-.654-.383-.752 0l-.79 3.1a.75.75 0 000 .37l.79 3.1c.05.2.227.293.397.284H2.38V9.681a.75.75 0 00-.023-.185zm20.621 0l-.79-3.1c-.099-.383-.655-.383-.753 0l-.79 3.1a.753.753 0 00-.023.185v3.569h1.168a.377.377 0 00.397-.285l.79-3.099a.74.74 0 000-.37z" fill="#FFC83E"/><path d="M20.62 9.681H2.38v3.57h18.24V9.68z" fill="#F5BE26"/></g><defs><clipPath id="clip0_0_170"><path fill="#fff" d="M0 0h23v15H0z"/></clipPath></defs></svg>
